X:45
T:Starry Night in Shetland
M:3/4
L:1/4
C:Trad.
R:Waltz
K:D
| A|:"D" f2 d | "/F#"  A B-A| "G" G2-G| "Em" c2-B| "A" A2 c| "/C#"e2 A|"D" f3| "A" f2 A|!
|"D" f2 d | "/F#"A B-A| "G" G2-G| "Em" c2-B| "A" A c "/B"e/f/| "A/C#"g B"A"c| "D" d3 |1 "A " d3  :||2 "D7" d2 e/f/||!
|: "G" g-B-g|  "G/A" g-B-g | "D" f-A-f | "D/A"f-A-f | "D" f d "/C"f | "B" a g f | "E" e3 |!
| "A" e d  "/G"e |"D/F#"  f2 d| "D7" A B-A | "G" G2-G | "Em" c2-B | "A"A c "/B"e/f/ | "A/C#"gB "A" c| "D" d3 |1 "D7" d3:||2 "D7" d2||!
